X: 1
T:Hartigan's Fancy []
T:Copppers and Brass []
N:IrTrad, 6/99
M:6/8
L:1/8
R:double jig
K:G
B2 B GBd|cBc ABc|B2 B GBd|cAG FGA|
B2 B GBd|cBc ABc|ded cAF|1AGF Gdc:|2AGF G3|:
~f3 fed|cAG FGA|Ggg gfg|afd d2 e|
f/g/ag fed|cAG FGA|B/c/dB cAF|AGF G3:||
gdB gdB|ecA ecA|BAB GBd|cAG FGA|
gdB gdB|ecA ecA|BAB GBd|cAF G3||
gdB gdB|ecA ecA|BAB GBd|cAG FGA|
BAB GBd|cBc ABc|ded cAF|AGF G3||
